X: 21553
M: 6/8
L: 1/8
K: F
f2f faf | g<ec d2d |\
d>ef c<AG | G2F FA c |\
f2f faf | g<ec d2d |\
d>ef c<AG | "^Fine."F3 |] \
cd=B | c2c ceg | c2c cd=B | c2c ceg | "^D.C."c3 |]


